_includes/icons/color-task-completed.svg

<svg fill="#666" height="50" viewBox="0 0 48 48" width="50" xmlns="http://www.w3.org/2000/svg"><path d="m36 4h-10c0 1.1-.9 2-2 2s-2-.9-2-2h-10c-2.2 0-4 1.8-4 4v32c0 2.2 1.8 4 4 4h24c2.2 0 4-1.8 4-4v-32c0-2.2-1.8-4-4-4z" fill="#455a64"/><path d="m36 41h-24c-.6 0-1-.4-1-1v-32c0-.6.4-1 1-1h24c.6 0 1 .4 1 1v32c0 .6-.4 1-1 1z" fill="#fff"/><path d="m26 4c0 1.1-.9 2-2 2s-2-.9-2-2h-7v4c0 1.1.9 2 2 2h14c1.1 0 2-.9 2-2v-4z" fill="#90a4ae"/><path d="m24 0c-2.2 0-4 1.8-4 4s1.8 4 4 4 4-1.8 4-4-1.8-4-4-4zm0 6c-1.1 0-2-.9-2-2s.9-2 2-2 2 .9 2 2-.9 2-2 2z" fill="#90a4ae"/><path d="m32 25c0 4.4-3.6 8-8 8s-8-3.6-8-8 3.6-8 8-8 8 3.6 8 8" fill="#4caf50"/><path d="m23.117 29.031-3.824-3.824 1.414-1.414 2.426 2.426 4.668-4.559 1.398 1.43z" fill="#e8f5e9"/></svg>

<svg xmlns="http://www.w3.org/2000/svg" viewBox="0 0 48 48" width="50" height="50" fill="#666"><path d="M36,4H26c0,1.1-0.9,2-2,2s-2-0.9-2-2H12C9.8,4,8,5.8,8,8v32c0,2.2,1.8,4,4,4h24c2.2,0,4-1.8,4-4V8 C40,5.8,38.2,4,36,4z" fill="#455a64"/><path d="M36,41H12c-0.6,0-1-0.4-1-1V8c0-0.6,0.4-1,1-1h24c0.6,0,1,0.4,1,1v32C37,40.6,36.6,41,36,41z" fill="#fff"/><path d="M26,4c0,1.1-0.9,2-2,2s-2-0.9-2-2h-7v4c0,1.1,0.9,2,2,2h14c1.1,0,2-0.9,2-2V4H26z" fill="#90a4ae"/><path d="M24,0c-2.2,0-4,1.8-4,4s1.8,4,4,4s4-1.8,4-4S26.2,0,24,0z M24,6c-1.1,0-2-0.9-2-2s0.9-2,2-2 s2,0.9,2,2S25.1,6,24,6z" fill="#90a4ae"/><path d="M32,25c0,4.4-3.6,8-8,8s-8-3.6-8-8s3.6-8,8-8S32,20.6,32,25" fill="#4caf50"/><path fill="#e8f5e9" d="M23.117 29.031L19.293 25.207 20.707 23.793 23.133 26.219 27.801 21.66 29.199 23.09z"/></svg>
